!!!PDT:	1923
!!!LANG: Non-Tone
!!!LING_GROUP: Siouan
!!!REG: Dakotas
!!!COM: Anon.
!!!OTL: The Enemy are Like Women
!!!ODT: <1918//
!!!MPN: Pau [Wounded Face]
!!!MLC: Fort Berthold Reservation, North Dakota, United States of America
!! Song was recorded during either the summer of 1912, 1915, or 1918.
!!!AGN: monody
!!!SOCIAL_FUNCTION: Mandan and Hidatsa Men's Dog Society
!!!AMT: irregular
!!!RWG: Transcribed pitches, durations, and meters are only approximate.
!! Drum Tempo: MM112
!! Drum-rhythm and rattle rhythm: (4 4 4 4)
**kern
*ICvox
*Imale
*clefF4
*k[f#c#]
*M2/4
*MM112
16f#
=1
([4f#
12f#
12e
12f#)
*M3/4
4f#
(12f#
12e
12e)
(12e
12d
12e)
=2
4e
(12e
12d
12d)
8.B
16B
=3
16e
8.d
2d
=4
16e
8.d
4.d
8b
*M2/4
=5
16e
8.d
(12B
12A
12B)
=6
4A
4A
=7
4A
4F#
=8
4B
8.B
16A
=9
16B
8.A
8.F#
16F#
=10
4..F#
16F#
=11
[2F#
=12
2F#]
=13
16d
8.d
8.B
16B
*M3/4
=14
16e
8.d
2d
=15
16e
8.d
4d
(8.d
16B)
*M2/4
=16
16d
8.d
(12B
12A)
12B
=17
4A
4A
=18
4A
4F#
=19
4B
(8.B
16A)
=20
(16B
8.A)
8.F#
16F#
=21
2F#
=22
2F#
==
*-
!!!CNT: Mandan
!!!TXO: Mandan
!!!OCY: United States
!!!OCL: Frances Densmore
!!!YOR: Frances Densmore, "Mandan and Hidatsa Music",
!!!YOR: Bulletin 80, page 137, No. 68
!!!PPR: Smithsonian Institution, Bureau of American Ethnology
!!!PPR: Government Printing Office
!!!PDT: 1923
!!!PPP: Washington, DC, United States of America
!!!YEC: Electronic Copyright 2000 David Huron
!!!YER: August 2000
!!!YEN: United States of America
!!!ENC: David Huron
!!!RDT: August 17, 2000
!!!EEV: Release 1.0
!!!AIN: tom, vox
